Papirus/64x64/apps/godot.svg

<svg xmlns="http://www.w3.org/2000/svg" width="64" height="64" version="1">
 <path style="opacity:.2" d="m26.4 4.9990078-0.229686 0.1339844-6.770314 2.8670078 1.4 7-6.444922 2.947656-3.355078-2.947656-7 7 4 4.333984v14.51133l-4-1.118362v4.66758c5.6373336 8.612332 15.4 12.605468 28 12.605468s22.362666-3.993136 28-12.605468v-4.66758l-4 1.118362v-14.51133l4-4.333984-7-7-3.355078 2.947656-6.444922-2.947656 1.4-7-7-3.0009922-2.395314 4.0009922h-6.414842z"/>
 <path style="fill:#3888c3" d="m26.4 3.9990078-0.229686 0.1339844-6.770314 2.8670078 1.4 7-6.444922 2.947657-3.355078-2.947657-7 7 4 4.333984v14.51133l-4-1.118362v4.66758c5.6373336 8.612332 15.4 12.605468 28 12.605468s22.362666-3.993136 28-12.605468v-4.66758l-4 1.118362v-14.51133l4-4.333984-7-7-3.355078 2.947657-6.444922-2.947657 1.4-7-7-3.0009922-2.395314 4.0009922h-6.414842z"/>
 <path style="opacity:.2" d="m18 25c3.3144 0 6 2.6856 6 6s-2.6856 6-6 6-6-2.6856-6-6 2.6856-6 6-6z"/>
 <path style="fill:#ffffff" d="m18 24c3.3144 0 6 2.6856 6 6s-2.6856 6-6 6-6-2.6856-6-6 2.6856-6 6-6z"/>
 <path style="fill:#353535" d="m21 30a3 3 0 1 1 -6 0 3 3 0 1 1 6 0z"/>
 <path style="opacity:.2" d="m32 29c1.108 0 2 0.892 2 2v4c0 1.108-0.892 2-2 2s-2-0.892-2-2v-4c0-1.108 0.892-2 2-2z"/>
 <path style="fill:#ffffff" d="m32 28c1.108 0 2 0.892 2 2v4c0 1.108-0.892 2-2 2s-2-0.892-2-2v-4c0-1.108 0.892-2 2-2z"/>
 <path style="opacity:.2" d="m46 25c3.3144 0 6 2.6856 6 6s-2.6856 6-6 6-6-2.6856-6-6 2.6856-6 6-6z"/>
 <path style="fill:#ffffff" d="m46 24c3.3144 0 6 2.6856 6 6s-2.6856 6-6 6-6-2.6856-6-6 2.6856-6 6-6z"/>
 <path style="fill:#353535" d="m49 30a3 3 0 1 1 -6 0 3 3 0 1 1 6 0z"/>
 <path style="opacity:.2;stroke:#000000;stroke-width:2;fill:none" d="m59.468614 37.364664-4.468614 1.021898v3.808892l-4 1.857996v-3.901792l-6 1.021898v3.808892l-8 1.216058v-4.2h-5m-27.4686132-4.633842 4.4686132 1.021898v3.808892l4 1.857996v-3.901792l6 1.021898v3.808892l8 1.216058v-4.2h5"/>
 <path style="stroke:#ffffff;stroke-width:2;fill:none" d="m59.468614 36.365458-4.468614 1.021898v3.808892l-4 1.857996v-3.901792l-6 1.021898v3.808892l-8 1.216058v-4.2h-5m-27.4686132-4.633842 4.4686132 1.021898v3.808892l4 1.857996v-3.901792l6 1.021898v3.808892l8 1.216058v-4.2h5"/>
 <path style="opacity:.2;fill:#ffffff" d="m26.400391 3.9980469l-0.230469 0.1347656-6.769531 2.8671875 0.183593 0.921875 6.585938-2.7890625 0.230469-0.1347656 2.388671 4.0019531h3.208985 3.207031l2.394531-4.0019531 6.816407 2.9238281 0.183593-0.921875-7-3.0019531-2.394531 4.0019531h-3.207031-3.208985l-2.388671-4.0019531zm-15.400391 10.0019531l-7 7 0.4804688 0.519531 6.5195312-6.519531 3.355469 2.947266 6.445312-2.947266-0.183593-0.916016-6.261719 2.863282-3.355469-2.947266zm42 0l-3.355469 2.947266-6.261719-2.863282-0.183593 0.916016 6.445312 2.947266 3.355469-2.947266 6.519531 6.519531 0.480469-0.519531-7-7zm-49 24.726562v1l4 1.119141v-1l-4-1.119141zm56 0l-4 1.119141v1l4-1.119141v-1z"/>
</svg>

<svg xmlns="http://www.w3.org/2000/svg" width="64" height="64" version="1">
 <path d="M 26.4,4.9990078 26.170314,5.1329922 19.4,8 20.8,15 14.355078,17.947657 11,15 l -7,7 4,4.333984 0,14.51133 0,-1.118362 0,4.66758 C 8,44.394532 12,57 32,57 52,57 56,44.394532 56,44.394532 l 0,-4.66758 0,1.118362 0,-14.51133 L 60,22 53,15 49.644922,17.947657 43.2,15 44.6,8 37.6,4.9990078 35.204686,9 28.789844,9 Z" style="opacity:0.2"/>
 <path style="fill:#3888c3" d="M 26.4,3.9990078 26.170314,4.1329922 19.4,7 20.8,14 14.355078,16.947657 11,14 l -7,7 4,4.333984 0,14.51133 0,-1.118362 0,4.66758 C 8,43.394532 12,56 32,56 52,56 56,43.394532 56,43.394532 l 0,-4.66758 0,1.118362 0,-14.51133 L 60,21 53,14 49.644922,16.947657 43.2,14 44.6,7 37.6,3.9990078 35.204686,8 28.789844,8 Z"/>
 <path style="opacity:.2" d="m18 25c3.3144 0 6 2.6856 6 6s-2.6856 6-6 6-6-2.6856-6-6 2.6856-6 6-6z"/>
 <path style="fill:#ffffff" d="m18 24c3.3144 0 6 2.6856 6 6s-2.6856 6-6 6-6-2.6856-6-6 2.6856-6 6-6z"/>
 <path style="fill:#353535" d="m21 30a3 3 0 1 1 -6 0 3 3 0 1 1 6 0z"/>
 <path style="opacity:.2" d="m32 29c1.108 0 2 0.892 2 2v4c0 1.108-0.892 2-2 2s-2-0.892-2-2v-4c0-1.108 0.892-2 2-2z"/>
 <path style="fill:#ffffff" d="m32 28c1.108 0 2 0.892 2 2v4c0 1.108-0.892 2-2 2s-2-0.892-2-2v-4c0-1.108 0.892-2 2-2z"/>
 <path style="opacity:.2" d="m46 25c3.3144 0 6 2.6856 6 6s-2.6856 6-6 6-6-2.6856-6-6 2.6856-6 6-6z"/>
 <path style="fill:#ffffff" d="m46 24c3.3144 0 6 2.6856 6 6s-2.6856 6-6 6-6-2.6856-6-6 2.6856-6 6-6z"/>
 <path style="fill:#353535" d="m49 30a3 3 0 1 1 -6 0 3 3 0 1 1 6 0z"/>
 <path d="m 56,42 -9,0 0,4 -10,0 0,-4.0007 -5,0 M 8,42 l 9,0 0,4 10,0 0,-4.0007 5,0" style="opacity:0.2;fill:none;stroke:#000000;stroke-width:2;stroke-linejoin:round"/>
 <path style="fill:none;stroke:#ffffff;stroke-width:2;stroke-linejoin:round" d="m 56,41 -9,0 0,4 -10,0 0,-4.0007 -5,0 M 8,41 l 9,0 0,4 10,0 0,-4.0007 5,0"/>
 <path style="fill:#ffffff;opacity:0.2" d="M 26.400391 3.9980469 L 26.169922 4.1328125 L 19.400391 7 L 19.583984 7.921875 L 26.169922 5.1328125 L 26.400391 4.9980469 L 28.789062 9 L 35.205078 9 L 37.599609 4.9980469 L 44.416016 7.921875 L 44.599609 7 L 37.599609 3.9980469 L 35.205078 8 L 28.789062 8 L 26.400391 3.9980469 z M 11 14 L 4 21 L 4.4804688 21.519531 L 11 15 L 14.355469 17.947266 L 20.800781 15 L 20.617188 14.083984 L 14.355469 16.947266 L 11 14 z M 53 14 L 49.644531 16.947266 L 43.382812 14.083984 L 43.199219 15 L 49.644531 17.947266 L 53 15 L 59.519531 21.519531 L 60 21 L 53 14 z"/>
</svg>
